X: 20992
Q: "Allegretto"
M: 6/8
L: 1/8
K: C
cdc efg | e2c {d}cBc | (de).d dgf | e3 z2G |\
(cd).c c'2b | a2g ^fed | (ga).b (de).^f | g3 z2 :|
|: g |\
f2f agf | e2g c'2g | agf edc | c3 {dc}B2e |\
(fe).d (de).f | e2g g2e | (fe).d (de).f | g3 e2g |
gbc' g2c' | g2e g2a | (gf).e (de).f | e3 g2g |\
c'2g c'2g | Hc'3 Ha3 | gfe efd | c3 z2 |]


